X:210
T:Frank Gilruth
C:Peter Milne
B:Flowers of Scottish Melody (1935)
Z:Nigel Gatherer
R:reel
M:4/4
L:1/8
K:E
e2 dc BEGB|cFAc BEGB|e2 dc BEGB|cedf cagf|e2 dc BEGB|cFAc BEGB|
edec BEGB|cedf gee||g|agfe dece|Bede geeb|agfe dece|
Bedf geeg|agfe dece|Bede geea|gbge fafd|egec dfdB|]
<end>
<start>
